src/icons/webpack.svg

<svg width="24" height="24" viewBox="0 0 24 24" fill="none" xmlns="http://www.w3.org/2000/svg">
<path d="M12.286 1.98C12.076 1.98 11.876 2.039 11.716 2.159L3.81601 6.599C3.49601 6.769 3.28601 7.099 3.28601 7.479V16.479C3.28601 16.859 3.49601 17.19 3.81601 17.36L11.716 21.8C11.876 21.92 12.076 21.98 12.286 21.98C12.496 21.98 12.696 21.92 12.856 21.8L20.756 17.36C21.076 17.19 21.286 16.86 21.286 16.48V7.48C21.286 7.1 21.076 6.768 20.756 6.598L12.856 2.158C12.6904 2.03826 12.4904 1.97546 12.286 1.979V1.98ZM12.286 4.13L19.286 8.07V10.173H19.27V15.35H19.286V15.89L12.286 19.829L5.28601 15.889V8.07L12.286 4.13ZM12.286 6.21L7.38601 9.04L12.286 11.87L17.186 9.04L12.286 6.21ZM7.28601 11.29V14.87L11.286 17.179V13.599L7.28601 11.289V11.29ZM17.286 11.29L13.286 13.598V17.178L17.286 14.87V11.29Z" fill="#8ED6FB"/>
<path d="M12.286 6.21L7.38601 9.04L12.286 11.87L17.186 9.04L12.286 6.21ZM7.28601 11.29V14.87L11.286 17.179V13.599L7.28601 11.289V11.29ZM17.286 11.29L13.286 13.598V17.178L17.286 14.87V11.29Z" fill="#8ED6FB"/>
</svg>

<svg viewBox="0 0 24 24" xmlns="http://www.w3.org/2000/svg"><path d="m19.376 15.988-7.708 4.45-7.709-4.45v-8.9l7.709-4.451 7.708 4.45z" fill="#fff" fill-opacity=".785"/><path d="M12.286 1.98c-.21 0-.41.059-.57.179l-7.9 4.44c-.32.17-.53.5-.53.88v9c0 .38.21.711.53.881l7.9 4.44c.16.12.36.18.57.18s.41-.06.57-.18l7.9-4.44c.32-.17.53-.5.53-.88v-9c0-.38-.21-.712-.53-.882l-7.9-4.44a.945.945 0 0 0-.57-.179zm0 2.15 7 3.94v2.103h-.016v5.177h.016v.54l-7 3.939-7-3.94V8.07l7-3.94zm0 2.08-4.9 2.83 4.9 2.83 4.9-2.83-4.9-2.83zm-5 5.08v3.58l4 2.309v-3.58l-4-2.31zm10 0-4 2.308v3.58l4-2.308v-3.58z" fill="#8ed6fb"/><path d="m12.286 6.21-4.9 2.83 4.9 2.83 4.9-2.83-4.9-2.83zm-5 5.08v3.58l4 2.309v-3.58l-4-2.31zm10 0-4 2.308v3.58l4-2.308v-3.58z" fill="#1c78c0"/></svg>
